images/icon_facebook.svg

<svg width="32" height="32" viewBox="0 0 32 32" fill="none" xmlns="http://www.w3.org/2000/svg">
<circle cx="16" cy="16" r="16" fill="#2353A5"/>
<path d="M17.397 24.9972V16.8012H20.162L20.573 13.5922H17.397V11.5482C17.397 10.6222 17.655 9.98817 18.984 9.98817H20.668V7.12717C19.8487 7.03936 19.0251 6.99696 18.201 7.00017C15.757 7.00017 14.079 8.49217 14.079 11.2312V13.5862H11.332V16.7952H14.085V24.9972H17.397Z" fill="white"/>
</svg>

<svg width="32" height="32" fill="none" xmlns="http://www.w3.org/2000/svg"><circle cx="16" cy="16" r="16" fill="#2353A5"/><path d="M17.397 24.997v-8.196h2.765l.411-3.209h-3.176v-2.044c0-.926.258-1.56 1.587-1.56h1.684v-2.86c-.82-.089-1.643-.131-2.467-.128-2.444 0-4.122 1.492-4.122 4.231v2.355h-2.747v3.21h2.753v8.201h3.312Z" fill="#fff"/></svg>
